X:1
T:Bärglerchoscht-Juiz  Bb  ABCCD
T:Fridolin Haldi (9.5.1918-14.11.2012)
T:Dirigenten-Notiz  Edi Gasser
C:Unterwalden (CH)
%%partsbox
P:ABCCD
M:3/4
R:Naturjodel
L:1/8
K:Bb
[P:A] "gefühlvoll" F>E | D3F D/F/B/c/ | d>c B>F Fd | c>F Ff dc | 
B>DF2 F>E | D3F D/F/B/c/ | d>c B>F Fd | c>F Ff dc | B4 ||
L:1/8
M:3/4
[P:B] "bewegter" fe/d/ | c>EF2 E/F/d/c/ | BdF2 G>F | =E>d c>_E F>E | 
D>cB2fe/d/ | c>E F2 E/F/d/c/ | BdF2 G>F | =E>d ce dc | B4 ||
M:3/4
[P:C] "flottes Walzertempo" DE | F3D Fd | B3d ed | c2F2d2 | c3f ed | c3FF2 | e3dc2 | B4d2 | 
F4DE | F3D Fd | B3d ed | c2F2d2 | c3f ed | c3FF2 | e2d2c2 | (B6 | B2)z2 |]
[P:D] "gemütlicher" BA | G3E E2  | B3AG2 | F4e2 | d4F2 | =E4d2 | c4E2 | D4c2 | 
B4BA | G3EE2 | B3AG2 | F4e2 | d4F2 | =E4d2 | c2F2d2 | (B6 | B2)z2 |]
%W:
%W:Reihenfolge: A-B-CC-D
%W:UJV-Naturjodelsammlung: Code-Nr: 15-01
%W:http://www.naturjodler.ch/code 15.htm  (with AUDIO)
%May 9, 2018 (Fridolin was born today, 100 years ago)

